!!!Genre:	Freylekhs
!!!Mode:	Minor
!!!Listening/dance:	dance
!!!:	*G:frey
!!!One_Mode:	no
**kern
*I"P1
*clefG2
*k[b-e-]
*g:
*M2/4
*>A
=1
24gLL
24a
24gJ
8dJ
24gLL
24a
24gJ
8dJ
=2
8gL
8aJ
4b-
=3
24aLL
24b-
24aJ
8gJ
8aL
8b-J
=4
8cc#X
8qeen/
8ddJ
16b-LL
16aJ
8gJ
=5
24gLL
24a
24gJ
8dJ
24gLL
24a
24gJ
8dJ
=6
8gL
8aJ
4b-
=7
24aLL
24b-
24aJ
8gJ
8aL
8b-J
=8
4g
8r
8d
=9:|!
4g
8r
8g
=10!|:
*>B
4cc
8ddL
(8qff/
8ee-J)
=11
(16ddLL
16ee-JJ)
4cc
8a
=12
4b-
8ccL
8ddJ
=13
*^
4ryy	16ccLL
.	16ddJJ
.	4b-
8ryy	.
24aLL	8a
24b-	.
24aJJ	.
*v	*v
=14
4g
8aL
8b-J
=15
4cc
8r
8dd
=16
(16ddLL
16cc#XJ
8b-J)
16b-LL
16aJ
8gJ
=17
16aLL
16b-J
8ccnJ
16b-LL
16aJ
8gJ
=18:|!
4.g
*>C
8dd
*>bM
*-
